packages/core/src/svgs/efx.svg

<svg width="24" height="24" viewBox="0 0 24 24" fill="none" xmlns="http://www.w3.org/2000/svg">
<g clip-path="url(#clip0_31_9764)">
<path d="M0 0H24V24H0V0Z" fill="#5158FA"/>
<path fill-rule="evenodd" clip-rule="evenodd" d="M3.85718 11.9659C3.85718 7.58585 7.02861 3.973 11.1429 3.42871V5.263C12.1377 5.07363 13.162 5.10582 14.1429 5.35728V8.07014C13.5238 7.79997 12.8496 7.67997 12.1753 7.71991C11.501 7.75985 10.8457 7.95861 10.2629 8.29997C9.68002 8.64133 9.18609 9.11563 8.82139 9.68419C8.4567 10.2527 8.23155 10.8995 8.16432 11.5716H9.02575C9.12072 10.8159 9.46463 10.1133 10.0032 9.57473C10.5418 9.03616 11.2443 8.69226 12 8.59728V9.463C11.3987 9.56218 10.8522 9.87171 10.4579 10.3364C10.0636 10.8011 9.84712 11.3907 9.84712 12.0001C9.84712 12.6096 10.0636 13.1992 10.4579 13.6639C10.8522 14.1286 11.3987 14.4381 12 14.5373V17.1216C11.3044 17.0698 10.6266 16.8771 10.0078 16.5551C9.38895 16.2332 8.84211 15.7887 8.4005 15.2487C7.95889 14.7088 7.63175 14.0846 7.43896 13.4142C7.24618 12.7438 7.19178 12.0412 7.27909 11.3492C7.3664 10.6571 7.59359 9.99003 7.94683 9.38853C8.30007 8.78703 8.77198 8.26368 9.33386 7.85031C9.89574 7.43694 10.5358 7.1422 11.2152 6.98401C11.8946 6.82582 12.5991 6.80749 13.2857 6.93014V6.06014C11.7873 5.8463 10.2634 6.2067 9.01949 7.06912C7.77559 7.93153 6.90359 9.23222 6.57829 10.7105C6.25299 12.1887 6.49843 13.7353 7.2654 15.0402C8.03237 16.3452 9.26421 17.312 10.714 17.7469C12.1638 18.1819 13.7244 18.0528 15.083 17.3855C16.4416 16.7183 17.4979 15.5622 18.04 14.149C18.5822 12.7358 18.5701 11.1699 18.0064 9.76518C17.4426 8.36046 16.3687 7.22073 15 6.57443V5.64014C16.3403 6.17979 17.4758 7.12898 18.2446 8.35225C19.0133 9.57552 19.3761 11.0104 19.2811 12.452C19.186 13.8937 18.6381 15.2685 17.7154 16.3803C16.7926 17.492 15.5424 18.2839 14.1429 18.643V20.3444C13.5215 20.4901 12.8786 20.5716 12.2143 20.5716C7.59861 20.5716 3.85718 16.7187 3.85718 11.9659ZM11.1429 16.0887C10.3427 15.8371 9.63398 15.3562 9.10452 14.7056C8.57506 14.055 8.24815 13.2633 8.16432 12.4287H9.02575C9.10225 13.0341 9.33874 13.6082 9.71087 14.0918C10.083 14.5754 10.5773 14.9511 11.1429 15.1801V16.0887ZM12.4286 18.8573C12.72 18.8573 13.0029 18.8401 13.2857 18.8059V19.6373C12.9343 19.6887 12.5786 19.7144 12.2143 19.7144C8.21146 19.7144 4.94146 16.4916 4.72718 12.4287H5.58432C5.69335 14.1698 6.46191 15.8039 7.73349 16.9983C9.00508 18.1926 10.6841 18.8574 12.4286 18.8573ZM5.58432 11.5716C5.67049 10.2036 6.16437 8.89284 7.00233 7.80816C7.84028 6.72348 8.98389 5.91463 10.2857 5.48585V4.543C8.73951 4.9842 7.37099 5.90011 6.37356 7.16132C5.37613 8.42253 4.80021 9.96527 4.72718 11.5716H5.58432ZM12.4286 8.57157H12.4157H12.4243H12.4286ZM12.8572 15.403C13.6876 15.3007 14.452 14.8983 15.0063 14.2715C15.5606 13.6447 15.8666 12.8369 15.8666 12.0001C15.8666 11.1634 15.5606 10.3556 15.0063 9.72878C14.452 9.10201 13.6876 8.69957 12.8572 8.59728V9.463C13.3842 9.55177 13.8704 9.80253 14.2483 10.1804C14.6262 10.5583 14.877 11.0446 14.9657 11.5716H14.0872C13.9829 11.1676 13.7348 10.8155 13.3895 10.5813C13.0441 10.3471 12.6252 10.2469 12.2113 10.2995C11.7974 10.3521 11.4169 10.5538 11.141 10.8669C10.8652 11.18 10.713 11.5829 10.713 12.0001C10.713 12.4174 10.8652 12.8203 11.141 13.1334C11.4169 13.4465 11.7974 13.6482 12.2113 13.7008C12.6252 13.7533 13.0441 13.6531 13.3895 13.419C13.7348 13.1848 13.9829 12.8327 14.0872 12.4287H14.9657C14.877 12.9557 14.6262 13.442 14.2483 13.8199C13.8704 14.1977 13.3842 14.4485 12.8572 14.5373V15.403ZM12.4286 12.643C12.5991 12.643 12.7626 12.5753 12.8832 12.4547C13.0037 12.3341 13.0715 12.1706 13.0715 12.0001C13.0715 11.8296 13.0037 11.6661 12.8832 11.5456C12.7626 11.425 12.5991 11.3573 12.4286 11.3573C12.2581 11.3573 12.0946 11.425 11.974 11.5456C11.8535 11.6661 11.7857 11.8296 11.7857 12.0001C11.7857 12.1706 11.8535 12.3341 11.974 12.4547C12.0946 12.5753 12.2581 12.643 12.4286 12.643Z" fill="#F0F3FA"/>
</g>
<defs>
<clipPath id="clip0_31_9764">
<rect width="24" height="24" fill="white"/>
</clipPath>
</defs>
</svg>

<svg xmlns="http://www.w3.org/2000/svg" width="24" height="24" fill="none" viewBox="0 0 24 24"><g clip-path="url(#a)"><path fill="#5158FA" d="M0 0h24v24H0z"/><path fill="#F0F3FA" fill-rule="evenodd" d="M3.857 11.966c0-4.38 3.172-7.993 7.286-8.537v1.834a6.9 6.9 0 0 1 3 .094V8.07a4.286 4.286 0 0 0-5.979 3.502h.862A3.43 3.43 0 0 1 12 8.597v.866a2.571 2.571 0 0 0 0 5.074v2.585A5.143 5.143 0 1 1 13.286 6.93v-.87A6 6 0 1 0 15 6.574V5.64a6.857 6.857 0 0 1-.857 13.003v1.701a8.4 8.4 0 0 1-1.929.228c-4.615 0-8.357-3.853-8.357-8.606m7.286 4.123a4.29 4.29 0 0 1-2.979-3.66h.862a3.43 3.43 0 0 0 2.117 2.751zm1.286 2.768c.291 0 .574-.017.857-.051v.831a7.4 7.4 0 0 1-1.072.077c-4.003 0-7.273-3.222-7.487-7.285h.857a6.857 6.857 0 0 0 6.845 6.428m-6.845-7.285a6.86 6.86 0 0 1 4.702-6.086v-.943a7.67 7.67 0 0 0-5.559 7.029zm6.845-3h-.013.013m.428 6.831a3.428 3.428 0 0 0 0-6.806v.866a2.57 2.57 0 0 1 2.109 2.109h-.879a1.715 1.715 0 1 0 0 .857h.879a2.57 2.57 0 0 1-2.109 2.108zm-.428-2.76a.643.643 0 1 0 0-1.286.643.643 0 0 0 0 1.286" clip-rule="evenodd"/></g><defs><clipPath id="a"><path fill="#fff" d="M0 0h24v24H0z"/></clipPath></defs></svg>
